X:1
T:Frog and the Mouse, The
M:2/4
L:1/8
S:Frank Kidson - Old English Country Dances  (1890)
Z:AK/Fiddler's Companion
K:G
D|G2G2|D2D2|EDEF|D3D|G2D2|GFGA|
B4|G3::G|B2c2|d2B2|G2D2|D2d2|dedc|B4|
d4|G2G2|D2D2|EDEF|D2D2|G2D2|GFGA|B4|G3:|
